icon-themes/breeze_svg/cmd/lc_mailmergewizard.svg

<svg viewBox="0 0 24 24" xmlns="http://www.w3.org/2000/svg"><path d="m4 4v1 1 1l-2 3v1 1.400391.599609 6 .414062.585938h1 6 6v-1h-12v-.585938-1.414062-4-1-.599609-.400391h.4003906.5996094 1.078125l6.921875 3.996094 6.921875-3.996094h.078125 1 1v.400391.599609 1h1v-.599609-1.414063-.986328l-2-3v-3h-15zm1 1h14v1 3.7988281l-7 4.0410159-7-4.0410159v-3.7988281zm1 1v.9863281l-.0136719.0136719h.0136719 12 .013672l-.013672-.0136719v-.9863281zm0 2v1h7v-1zm13.5 5c-.831 0-1.5.669-1.5 1.5s.669 1.5 1.5 1.5 1.5-.669 1.5-1.5-.669-1.5-1.5-1.5zm-.5 4c-1.108 0-2 .892-2 2v1h5v-1c0-1.108-.892-2-2-2z" fill="#4d4d4d"/></svg>

<svg xmlns="http://www.w3.org/2000/svg" viewBox="0 0 24 24">
 <path 
     style="fill:#4d4d4d" 
     d="M 4 4 L 4 5 L 4 6 L 4 7 L 2 10 L 2 11 L 2 12.400391 L 2 13 L 2 19 L 2 19.414062 L 2 20 L 3 20 L 9 20 L 15 20 L 15 19 L 3 19 L 3 18.414062 L 3 17 L 3 13 L 3 12 L 3 11.400391 L 3 11 L 3.4003906 11 L 4 11 L 5.078125 11 L 12 14.996094 L 18.921875 11 L 19 11 L 20 11 L 21 11 L 21 11.400391 L 21 12 L 21 13 L 22 13 L 22 12.400391 L 22 10.986328 L 22 10 L 20 7 L 20 4 L 5 4 L 4 4 z M 5 5 L 19 5 L 19 6 L 19 9.7988281 L 12 13.839844 L 5 9.7988281 L 5 6 L 5 5 z M 6 6 L 6 6.9863281 L 5.9863281 7 L 6 7 L 18 7 L 18.013672 7 L 18 6.9863281 L 18 6 L 6 6 z M 6 8 L 6 9 L 13 9 L 13 8 L 6 8 z M 19.5 13 C 18.669 13 18 13.669 18 14.5 C 18 15.331 18.669 16 19.5 16 C 20.331 16 21 15.331 21 14.5 C 21 13.669 20.331 13 19.5 13 z M 19 17 C 17.892 17 17 17.892 17 19 L 17 20 L 22 20 L 22 19 C 22 17.892 21.108 17 20 17 L 19 17 z "
     />
 </svg>
